elements/app-hax/lib/assets/images/StyleSelection.svg

<svg xmlns="http://www.w3.org/2000/svg" fill="none" width="344" height="471" viewBox="0 0 344 471"><mask fill="#000" id="a" width="314" height="200" x="15" y="256" maskUnits="userSpaceOnUse"><path d="M15 256h314v200H15z" fill="#fff"/><path d="M32 261h280v190H32V261Zm-12 12h12v166H20V273Zm292 0h12v166h-12V273Z"/></mask><path d="M32 261h280v190H32V261Zm-12 12h12v166H20V273Zm292 0h12v166h-12V273Z" fill="#C4C4C4"/><path d="M32 261v-5h-5v5h5Zm280 0h5v-5h-5v5Zm0 190v5h5v-5h-5Zm-280 0h-5v5h5v-5ZM20 273v-5h-5v5h5Zm12 0h5v-5h-5v5Zm0 166v5h5v-5h-5Zm-12 0h-5v5h5v-5Zm292-166v-5h-5v5h5Zm12 0h5v-5h-5v5Zm0 166v5h5v-5h-5Zm-12 0h-5v5h5v-5ZM32 266h280v-10H32v10Zm275-5v190h10V261h-10Zm5 185H32v10h280v-10Zm-275 5V261H27v190h10ZM20 278h12v-10H20v10Zm7-5v166h10V273H27Zm5 161H20v10h12v-10Zm-7 5V273H15v166h10Zm287-161h12v-10h-12v10Zm7-5v166h10V273h-10Zm5 161h-12v10h12v-10Zm-7 5V273h-10v166h10Z" fill="#000" mask="url(#a)"/><path d="M300 427h12V285h-12v142Zm-220 0h12V285H80v142Zm12 12h208V273H92v166Z" fill="#fff"/><path d="M301.5 283.5v-12h-211v12h-12v145h12v12h211v-12h12v-145h-12Z" stroke="#000" stroke-opacity=".5" stroke-width="3"/><path d="M80 427h12V285H80v142Zm12 12h30V273H92v166Z" fill="#A8B6D8"/><path d="M300 296.5h12V285h-12v11.5Zm-220 0h12V285H80v11.5Zm12 0h208V273H92v23.5Z" fill="#8595BD"/><path d="M133.5 316.5v-9h-3V306h9v1.5h-3v9h-3Zm12 0v-6h-3V309h3v-3h3v3h3v1.5h-3v6h-3Z" fill="#09083A"/><path d="M144.75 334.75v-5h-2.5v-1.25h2.5V326h2.5v2.5h2.5v1.25h-2.5v5h-2.5Zm10 0v-5h-2.5v-1.25h2.5V326h2.5v2.5h2.5v1.25h-2.5v5h-2.5Z" fill="#4E5E88"/><path d="M144 351.25v-.75h-.75v-.75h-.75V349h-.75v-.75h.75v-.75h.75v-.75h.75V346h1.5v.75h-.75v.75H144v.75h-.75v.75h.75v.75h.75v.75h.75v.75H144Zm3.75 0v-.75h1.5v-3.75h-.75V346h2.25v4.5h1.5v.75h-4.5Zm7.5-4.5V346h1.5v.75h-1.5Zm-1.5 4.5v-.75h1.5v-2.25h-.75v-.75h2.25v3h1.5v.75h-4.5Zm5.25 0v-3.75h4.5v.75h.75v3h-1.5v-3h-2.25v3H159Zm6 0V346h1.5v3h1.5v-.75h.75v-.75h1.5v.75h-.75v.75h-.75v.75h.75v.75h.75v.75h-1.5v-.75H168v-.75h-1.5v1.5H165Zm6.75 0v-.75h.75v-.75h.75V349h.75v-.75h-.75v-.75h-.75v-.75h-.75V346h1.5v.75h.75v.75h.75v.75h.75v.75h-.75v.75H174v.75h-.75v.75h-1.5Z" fill="#B88E23"/><path d="M42 350h12v12H42z" fill="#A4C79E"/><path d="M40.5 348.5h15v15h-15z" stroke="#000" stroke-opacity=".5" stroke-width="3"/><path d="M32 261h280v190H32V261Zm-12 12h12v166H20V273Zm292 0h12v166h-12V273Z" fill="#93DE96" fill-opacity=".5"/><path d="M32 260.5h-.5v12h-12v167h12v12h281v-12h12v-167h-12v-12H32Z" stroke="#000" stroke-opacity=".5"/><mask fill="#000" id="b" width="314" height="200" x="15" y="15" maskUnits="userSpaceOnUse"><path d="M15 15h314v200H15z" fill="#fff"/><path d="M32 20h280v190H32V20ZM20 32h12v166H20V32Zm292 0h12v166h-12V32Z"/></mask><path d="M32 20h280v190H32V20ZM20 32h12v166H20V32Zm292 0h12v166h-12V32Z" fill="#C4C4C4"/><path d="M32 20v-5h-5v5h5Zm280 0h5v-5h-5v5Zm0 190v5h5v-5h-5Zm-280 0h-5v5h5v-5ZM20 32v-5h-5v5h5Zm12 0h5v-5h-5v5Zm0 166v5h5v-5h-5Zm-12 0h-5v5h5v-5ZM312 32v-5h-5v5h5Zm12 0h5v-5h-5v5Zm0 166v5h5v-5h-5Zm-12 0h-5v5h5v-5ZM32 25h280V15H32v10Zm275-5v190h10V20h-10Zm5 185H32v10h280v-10Zm-275 5V20H27v190h10ZM20 37h12V27H20v10Zm7-5v166h10V32H27Zm5 161H20v10h12v-10Zm-7 5V32H15v166h10ZM312 37h12V27h-12v10Zm7-5v166h10V32h-10Zm5 161h-12v10h12v-10Zm-7 5V32h-10v166h10Z" fill="#000" mask="url(#b)"/><path d="M300 186h12V44h-12v142Zm-220 0h12V44H80v142Zm12 12h208V32H92v166Z" fill="#fff"/><path d="M301.5 42.5v-12h-211v12h-12v145h12v12h211v-12h12v-145h-12Z" stroke="#000" stroke-opacity=".5" stroke-width="3"/><path d="M80 186h12V44H80v142Zm12 12h30V32H92v166Z" fill="#A8B6D8"/><path d="M300 55.5h12V44h-12v11.5Zm-220 0h12V44H80v11.5Zm12 0h208V32H92v23.5Z" fill="#8595BD"/><path d="M133.5 75.5v-9h-3V65h9v1.5h-3v9h-3Zm12 0v-6h-3V68h3v-3h3v3h3v1.5h-3v6h-3Z" fill="#09083A"/><path d="M144.75 93.75v-5h-2.5V87.5h2.5V85h2.5v2.5h2.5v1.25h-2.5v5h-2.5Zm10 0v-5h-2.5V87.5h2.5V85h2.5v2.5h2.5v1.25h-2.5v5h-2.5Z" fill="#4E5E88"/><path d="M144 110.25v-.75h-.75v-.75h-.75V108h-.75v-.75h.75v-.75h.75v-.75h.75V105h1.5v.75h-.75v.75H144v.75h-.75v.75h.75v.75h.75v.75h.75v.75H144Zm3.75 0v-.75h1.5v-3.75h-.75V105h2.25v4.5h1.5v.75h-4.5Zm7.5-4.5V105h1.5v.75h-1.5Zm-1.5 4.5v-.75h1.5v-2.25h-.75v-.75h2.25v3h1.5v.75h-4.5Zm5.25 0v-3.75h4.5v.75h.75v3h-1.5v-3h-2.25v3H159Zm6 0V105h1.5v3h1.5v-.75h.75v-.75h1.5v.75h-.75v.75h-.75v.75h.75v.75h.75v.75h-1.5v-.75H168v-.75h-1.5v1.5H165Zm6.75 0v-.75h.75v-.75h.75V108h.75v-.75h-.75v-.75h-.75v-.75h-.75V105h1.5v.75h.75v.75h.75v.75h.75v.75h-.75v.75H174v.75h-.75v.75h-1.5Z" fill="#B88E23"/><path d="M42 109h12v12H42z" fill="#fff"/><path d="M40.5 107.5h15v15h-15z" stroke="#000" stroke-opacity=".5" stroke-width="3"/><rect width="343" height="470" x=".5" y=".5" stroke="#7B61FF" stroke-dasharray="10 5" rx="4.5"/></svg>

<svg width="344" height="471" viewBox="0 0 344 471" fill="none" xmlns="http://www.w3.org/2000/svg">
<mask id="path-2-outside-1_24_117" maskUnits="userSpaceOnUse" x="15" y="256" width="314" height="200" fill="black">
<rect fill="white" x="15" y="256" width="314" height="200"/>
<path d="M32 261H312V451H32V261Z"/>
<path d="M20 273H32V439H20V273Z"/>
<path d="M312 273H324V439H312V273Z"/>
</mask>
<path d="M32 261H312V451H32V261Z" fill="#C4C4C4"/>
<path d="M20 273H32V439H20V273Z" fill="#C4C4C4"/>
<path d="M312 273H324V439H312V273Z" fill="#C4C4C4"/>
<path d="M32 261V256H27V261H32ZM312 261H317V256H312V261ZM312 451V456H317V451H312ZM32 451H27V456H32V451ZM20 273V268H15V273H20ZM32 273H37V268H32V273ZM32 439V444H37V439H32ZM20 439H15V444H20V439ZM312 273V268H307V273H312ZM324 273H329V268H324V273ZM324 439V444H329V439H324ZM312 439H307V444H312V439ZM32 266H312V256H32V266ZM307 261V451H317V261H307ZM312 446H32V456H312V446ZM37 451V261H27V451H37ZM20 278H32V268H20V278ZM27 273V439H37V273H27ZM32 434H20V444H32V434ZM25 439V273H15V439H25ZM312 278H324V268H312V278ZM319 273V439H329V273H319ZM324 434H312V444H324V434ZM317 439V273H307V439H317Z" fill="black" mask="url(#path-2-outside-1_24_117)"/>
<path d="M300 427H312V285H300V427Z" fill="white"/>
<path d="M80 427H92V285H80V427Z" fill="white"/>
<path d="M92 439H300V273H92V439Z" fill="white"/>
<path d="M301.5 283.5V273V271.5H300H92H90.5V273V283.5H80H78.5V285V427V428.5H80H90.5V439V440.5H92H300H301.5V439V428.5H312H313.5V427V285V283.5H312H301.5Z" stroke="black" stroke-opacity="0.5" stroke-width="3"/>
<path d="M80 427H92V285H80V427Z" fill="#A8B6D8"/>
<path d="M92 439H122V273H92V439Z" fill="#A8B6D8"/>
<path d="M300 296.5H312V285H300V296.5Z" fill="#8595BD"/>
<path d="M80 296.5H92V285H80V296.5Z" fill="#8595BD"/>
<path d="M92 296.5H300V273H92V296.5Z" fill="#8595BD"/>
<path d="M133.5 316.5V307.5H130.5V306H139.5V307.5H136.5V316.5H133.5ZM145.5 316.5V310.5H142.5V309H145.5V306H148.5V309H151.5V310.5H148.5V316.5H145.5Z" fill="#09083A"/>
<path d="M144.75 334.75V329.75H142.25V328.5H144.75V326H147.25V328.5H149.75V329.75H147.25V334.75H144.75ZM154.75 334.75V329.75H152.25V328.5H154.75V326H157.25V328.5H159.75V329.75H157.25V334.75H154.75Z" fill="#4E5E88"/>
<path d="M144 351.25V350.5H143.25V349.75H142.5V349H141.75V348.25H142.5V347.5H143.25V346.75H144V346H145.5V346.75H144.75V347.5H144V348.25H143.25V349H144V349.75H144.75V350.5H145.5V351.25H144ZM147.75 351.25V350.5H149.25V346.75H148.5V346H150.75V350.5H152.25V351.25H147.75ZM155.25 346.75V346H156.75V346.75H155.25ZM153.75 351.25V350.5H155.25V348.25H154.5V347.5H156.75V350.5H158.25V351.25H153.75ZM159 351.25V347.5H163.5V348.25H164.25V351.25H162.75V348.25H160.5V351.25H159ZM165 351.25V346H166.5V349H168V348.25H168.75V347.5H170.25V348.25H169.5V349H168.75V349.75H169.5V350.5H170.25V351.25H168.75V350.5H168V349.75H166.5V351.25H165ZM171.75 351.25V350.5H172.5V349.75H173.25V349H174V348.25H173.25V347.5H172.5V346.75H171.75V346H173.25V346.75H174V347.5H174.75V348.25H175.5V349H174.75V349.75H174V350.5H173.25V351.25H171.75Z" fill="#B88E23"/>
<rect x="42" y="350" width="12" height="12" fill="#A4C79E"/>
<rect x="40.5" y="348.5" width="15" height="15" stroke="black" stroke-opacity="0.5" stroke-width="3"/>
<path d="M32 261H312V451H32V261Z" fill="#93DE96" fill-opacity="0.5"/>
<path d="M20 273H32V439H20V273Z" fill="#93DE96" fill-opacity="0.5"/>
<path d="M312 273H324V439H312V273Z" fill="#93DE96" fill-opacity="0.5"/>
<path d="M32 260.5H31.5V261V272.5H20H19.5V273V439V439.5H20H31.5V451V451.5H32H312H312.5V451V439.5H324H324.5V439V273V272.5H324H312.5V261V260.5H312H32Z" stroke="black" stroke-opacity="0.5"/>
<mask id="path-15-outside-2_24_117" maskUnits="userSpaceOnUse" x="15" y="15" width="314" height="200" fill="black">
<rect fill="white" x="15" y="15" width="314" height="200"/>
<path d="M32 20H312V210H32V20Z"/>
<path d="M20 32H32V198H20V32Z"/>
<path d="M312 32H324V198H312V32Z"/>
</mask>
<path d="M32 20H312V210H32V20Z" fill="#C4C4C4"/>
<path d="M20 32H32V198H20V32Z" fill="#C4C4C4"/>
<path d="M312 32H324V198H312V32Z" fill="#C4C4C4"/>
<path d="M32 20V15H27V20H32ZM312 20H317V15H312V20ZM312 210V215H317V210H312ZM32 210H27V215H32V210ZM20 32V27H15V32H20ZM32 32H37V27H32V32ZM32 198V203H37V198H32ZM20 198H15V203H20V198ZM312 32V27H307V32H312ZM324 32H329V27H324V32ZM324 198V203H329V198H324ZM312 198H307V203H312V198ZM32 25H312V15H32V25ZM307 20V210H317V20H307ZM312 205H32V215H312V205ZM37 210V20H27V210H37ZM20 37H32V27H20V37ZM27 32V198H37V32H27ZM32 193H20V203H32V193ZM25 198V32H15V198H25ZM312 37H324V27H312V37ZM319 32V198H329V32H319ZM324 193H312V203H324V193ZM317 198V32H307V198H317Z" fill="black" mask="url(#path-15-outside-2_24_117)"/>
<path d="M300 186H312V44H300V186Z" fill="white"/>
<path d="M80 186H92V44H80V186Z" fill="white"/>
<path d="M92 198H300V32H92V198Z" fill="white"/>
<path d="M301.5 42.5V32V30.5H300H92H90.5V32V42.5H80H78.5V44V186V187.5H80H90.5V198V199.5H92H300H301.5V198V187.5H312H313.5V186V44V42.5H312H301.5Z" stroke="black" stroke-opacity="0.5" stroke-width="3"/>
<path d="M80 186H92V44H80V186Z" fill="#A8B6D8"/>
<path d="M92 198H122V32L92 32V198Z" fill="#A8B6D8"/>
<path d="M300 55.5H312V44H300V55.5Z" fill="#8595BD"/>
<path d="M80 55.5H92V44H80V55.5Z" fill="#8595BD"/>
<path d="M92 55.5H300V32H92V55.5Z" fill="#8595BD"/>
<path d="M133.5 75.5V66.5H130.5V65H139.5V66.5H136.5V75.5H133.5ZM145.5 75.5V69.5H142.5V68H145.5V65H148.5V68H151.5V69.5H148.5V75.5H145.5Z" fill="#09083A"/>
<path d="M144.75 93.75V88.75H142.25V87.5H144.75V85H147.25V87.5H149.75V88.75H147.25V93.75H144.75ZM154.75 93.75V88.75H152.25V87.5H154.75V85H157.25V87.5H159.75V88.75H157.25V93.75H154.75Z" fill="#4E5E88"/>
<path d="M144 110.25V109.5H143.25V108.75H142.5V108H141.75V107.25H142.5V106.5H143.25V105.75H144V105H145.5V105.75H144.75V106.5H144V107.25H143.25V108H144V108.75H144.75V109.5H145.5V110.25H144ZM147.75 110.25V109.5H149.25V105.75H148.5V105H150.75V109.5H152.25V110.25H147.75ZM155.25 105.75V105H156.75V105.75H155.25ZM153.75 110.25V109.5H155.25V107.25H154.5V106.5H156.75V109.5H158.25V110.25H153.75ZM159 110.25V106.5H163.5V107.25H164.25V110.25H162.75V107.25H160.5V110.25H159ZM165 110.25V105H166.5V108H168V107.25H168.75V106.5H170.25V107.25H169.5V108H168.75V108.75H169.5V109.5H170.25V110.25H168.75V109.5H168V108.75H166.5V110.25H165ZM171.75 110.25V109.5H172.5V108.75H173.25V108H174V107.25H173.25V106.5H172.5V105.75H171.75V105H173.25V105.75H174V106.5H174.75V107.25H175.5V108H174.75V108.75H174V109.5H173.25V110.25H171.75Z" fill="#B88E23"/>
<rect x="42" y="109" width="12" height="12" fill="white"/>
<rect x="40.5" y="107.5" width="15" height="15" stroke="black" stroke-opacity="0.5" stroke-width="3"/>
<rect x="0.5" y="0.5" width="343" height="470" rx="4.5" stroke="#7B61FF" stroke-dasharray="10 5"/>
</svg>
